img/globe.svg

<svg fill="none" height="800" viewBox="0 0 24 24" width="800" xmlns="http://www.w3.org/2000/svg">
    <g fill="#ffffff">
        <path d="m8.38729 5.07916c-.16149-.26746-.33103-.51718-.49949-.74456 1.15452-.83945 2.5755-1.3346 4.1122-1.3346 1.32 0 2.5547.36536 3.6084 1.00047-.0152.08912-.0367.19007-.0665.30245-.1056.39911-.2718.78003-.4131 1.00238-.0487.07667-.249.2725-.6124.54324-.162.1207-.3419.23154-.5561.35957l-.0743.04432c-.1875.11173-.4021.23956-.6089.3813-.488.33434-.9962.78625-1.338 1.51702-.2472.52852-.2302 1.04327-.1209 1.45611.0357.13477.0553.27045.0556.38966.0001.03708-.0144.09628-.0972.16538-.089.0744-.2144.1193-.3271.1181-1.077-.0122-1.92651-.90425-2.0498-2.32729-.0937-1.08151-.5356-2.08389-1.01241-2.87355z"/>
        <path d="m16.6517 14.5089c.2645-.0027.5126-.0201.7452-.0507-.8776 1.0613-2.0623 1.8593-3.4178 2.2581-.0465-.3814-.016-.8397.2088-1.2632.1919-.3617.6778-.6334 1.3337-.7946.3013-.0741.5878-.1121.8006-.1312.1055-.0094.1903-.014.2468-.0163.0282-.0011.0491-.0016.0618-.0018l.0121-.0002z"/>
        <path d="m5 10c0-1.71937.6199-3.29396 1.64838-4.51247.10118.14353.20259.29744.30075.46.40143.66485.71325 1.41614.77684 2.15019.17077 1.97108 1.48149 3.83698 3.70453 3.86218.9618.0109 2.1264-.712 2.1233-1.96756-.0007-.2875-.0459-.56766-.1115-.81545-.0316-.11928-.0271-.2167.0186-.31441.1705-.36461.4222-.60751.7657-.84285.16-.10961.3263-.20877.5186-.32349l.077-.046c.2153-.12868.4608-.2777.698-.45444.3448-.25693.7905-.61776 1.0266-.98947.187-.29423.3602-.67153.4944-1.06282 1.2129 1.25871 1.9588 2.97054 1.9588 4.85659 0 .5323-.0594 1.0508-.172 1.5491-.0674.1996-.1514.3861-.3027.5824-.2372.3078-.7122.6852-1.8911.6975h-.006l-.0287.0005c-.0237.0004-.0563.0012-.0968.0028-.0809.0032-.194.0095-.3306.0218-.2713.0243-.6457.0732-1.0515.1729-.7582.1864-1.8708.6098-2.4167 1.6386-.4308.8117-.4793 1.645-.3823 2.3271-.1066.0049-.2138.0073-.3216.0073-3.86599 0-7-3.134-7-7z"/>
        <path clip-rule="evenodd"
              d="m18.0035 1.49982c.2762-.30864.7504-.33491 1.059-.05866 2.2621 2.02464 3.6875 4.96928 3.6875 8.24584 0 5.7514-4.3888 10.4777-10 11.0126v.5504h1.25c.4142 0 .75.3358.75.75s-.3358.75-.75.75h-4c-.41421 0-.74999-.3358-.74999-.75s.33578-.75.74999-.75h1.25v-.5085c-3.10077-.1205-5.87463-1.5179-7.80884-3.679-.27625-.3086-.24998-.7828.05866-1.059.30865-.2763.78279-.25 1.05904.0587 1.75212 1.9576 4.29597 3.1878 7.12814 3.1878 5.2815 0 9.563-4.2815 9.563-9.563 0-2.83217-1.2302-5.37602-3.1878-7.12814-.3087-.27625-.335-.75039-.0587-1.05904z"
              fill-rule="evenodd"/>
    </g>
</svg>

<?xml version="1.0" encoding="utf-8"?><!-- Uploaded to: SVG Repo, www.svgrepo.com, Generator: SVG Repo Mixer Tools -->
<svg width="800px" height="800px" viewBox="0 0 24 24" fill="none" xmlns="http://www.w3.org/2000/svg">
    <path d="M8.38729 5.07916C8.2258 4.8117 8.05626 4.56198 7.8878 4.3346C9.04232 3.49515 10.4633 3 12 3C13.32 3 14.5547 3.36536 15.6084 4.00047C15.5932 4.08959 15.5717 4.19054 15.5419 4.30292C15.4363 4.70203 15.2701 5.08295 15.1288 5.3053C15.0801 5.38197 14.8798 5.5778 14.5164 5.84854C14.3544 5.96924 14.1745 6.08008 13.9603 6.20811L13.886 6.25243C13.6985 6.36416 13.4839 6.49199 13.2771 6.63373C12.7891 6.96807 12.2809 7.41998 11.9391 8.15075C11.6919 8.67927 11.7089 9.19402 11.8182 9.60686C11.8539 9.74163 11.8735 9.87731 11.8738 9.99652C11.8739 10.0336 11.8594 10.0928 11.7766 10.1619C11.6876 10.2363 11.5622 10.2812 11.4495 10.28C10.3725 10.2678 9.52299 9.37575 9.3997 7.95271C9.306 6.8712 8.8641 5.86882 8.38729 5.07916Z"
          fill="#FFFFFF"/>
    <path d="M16.6517 14.5089C16.9162 14.5062 17.1643 14.4888 17.3969 14.4582C16.5193 15.5195 15.3346 16.3175 13.9791 16.7163C13.9326 16.3349 13.9631 15.8766 14.1879 15.4531C14.3798 15.0914 14.8657 14.8197 15.5216 14.6585C15.8229 14.5844 16.1094 14.5464 16.3222 14.5273C16.4277 14.5179 16.5125 14.5133 16.569 14.511C16.5972 14.5099 16.6181 14.5094 16.6308 14.5092L16.6429 14.509L16.6517 14.5089Z"
          fill="#FFFFFF"/>
    <path d="M5 10C5 8.28063 5.6199 6.70604 6.64838 5.48753C6.74956 5.63106 6.85097 5.78497 6.94913 5.94753C7.35056 6.61238 7.66238 7.36367 7.72597 8.09772C7.89674 10.0688 9.20746 11.9347 11.4305 11.9599C12.3923 11.9708 13.5569 11.2479 13.5538 9.99234C13.5531 9.70484 13.5079 9.42468 13.4423 9.17689C13.4107 9.05761 13.4152 8.96019 13.4609 8.86248C13.6314 8.49787 13.8831 8.25497 14.2266 8.01963C14.3866 7.91002 14.5529 7.81086 14.7452 7.69614L14.8222 7.65014C15.0375 7.52146 15.283 7.37244 15.5202 7.1957C15.865 6.93877 16.3107 6.57794 16.5468 6.20623C16.7338 5.912 16.907 5.5347 17.0412 5.14341C18.2541 6.40212 19 8.11395 19 10C19 10.5323 18.9406 11.0508 18.828 11.5491C18.7606 11.7487 18.6766 11.9352 18.5253 12.1315C18.2881 12.4393 17.8131 12.8167 16.6342 12.829L16.6282 12.829L16.5995 12.8295C16.5758 12.8299 16.5432 12.8307 16.5027 12.8323C16.4218 12.8355 16.3087 12.8418 16.1721 12.8541C15.9008 12.8784 15.5264 12.9273 15.1206 13.027C14.3624 13.2134 13.2498 13.6368 12.7039 14.6656C12.2731 15.4773 12.2246 16.3106 12.3216 16.9927C12.215 16.9976 12.1078 17 12 17C8.13401 17 5 13.866 5 10Z"
          fill="#FFFFFF"/>
    <path fill-rule="evenodd" clip-rule="evenodd"
          d="M18.0035 1.49982C18.2797 1.19118 18.7539 1.16491 19.0625 1.44116C21.3246 3.4658 22.75 6.41044 22.75 9.687C22.75 15.4384 18.3612 20.1647 12.75 20.6996V21.25H14C14.4142 21.25 14.75 21.5858 14.75 22C14.75 22.4142 14.4142 22.75 14 22.75H10C9.58579 22.75 9.25001 22.4142 9.25001 22C9.25001 21.5858 9.58579 21.25 10 21.25H11.25V20.7415C8.14923 20.621 5.37537 19.2236 3.44116 17.0625C3.16491 16.7539 3.19118 16.2797 3.49982 16.0035C3.80847 15.7272 4.28261 15.7535 4.55886 16.0622C6.31098 18.0198 8.85483 19.25 11.687 19.25C16.9685 19.25 21.25 14.9685 21.25 9.687C21.25 6.85483 20.0198 4.31098 18.0622 2.55886C17.7535 2.28261 17.7272 1.80847 18.0035 1.49982Z"
          fill="#FFFFFF"/>
</svg>
